X:9878
T:Lord Moira's Hornpipe
M:2/4
L:1/16
K:F
CFF2 Acc2|BGAF EGEC|CFF2 Acc2|dfeg f2a2|!
CFF2 Acc2|BGAF EGEC|CFF2 Acc2|dfeg f2z2:|!
|:AFcF dFcF|AFcF GABc|AFcF dFAF|dfeg f2cB|!
AFcF dFcF|AFcF GABc|AFcF dFcF|dfeg f2z2:|!


